X: 19975
T: Jim Conroy's
R: reel
M: 4/4
K: Gmajor
|:A3G EEDE|G2 BG dGBG|A3G EE D2|Bdef gedB|
A3G EEDE|G2 BG dGBG|A3G EE D2|Bdef gede:|
|:g2 bg egde|g2 bg eaaf|g2 bg egge|dega bage|
gabg egde|gabg ea a2|bgaf gedg|eaaf gedB:|

